images/mark-full.svg

<?xml version="1.0" encoding="UTF-8"?>
<svg width="1148px" height="861px" viewBox="0 0 1148 861" version="1.1" xmlns="http://www.w3.org/2000/svg" xmlns:xlink="http://www.w3.org/1999/xlink">
    <!-- Generator: Sketch 45.2 (43514) - http://www.bohemiancoding.com/sketch -->
    <title>mark</title>
    <desc>Created with Sketch.</desc>
    <defs>
        <linearGradient x1="0%" y1="49.9999835%" x2="100.000037%" y2="49.9999835%" id="linearGradient-1">
            <stop stop-color="#7F7CBB" offset="0%"></stop>
            <stop stop-color="#7FCEEA" offset="47.13%"></stop>
            <stop stop-color="#89CDA8" offset="100%"></stop>
        </linearGradient>
    </defs>
    <g id="Page-1" stroke="none" stroke-width="1" fill="none" fill-rule="evenodd">
        <path d="M434.155807,861 C197.783425,861 8.8632132,677.840007 0.174545926,442.545819 L0,442.545819 L0,424.965435 C5.41950793,186.414195 195.574418,0 434.155807,0 C612.248449,0 770.540143,105.976705 837.451322,269.993328 C840.661823,279.949704 843.524662,286.822852 858.621454,303.649527 C927.870404,380.717407 1018.56704,397.240603 1047.36569,400.613062 L1047.36569,30.3293331 C1047.36569,14.3404302 1061.3451,1.07143602 1077.87975,1.07143602 L1110.89182,1.07143602 L1146.17013,44.9589941 L1148,433.850375 L1148,810.703773 L1110.89039,860.103812 L1077.87832,860.103812 C1061.34367,860.103812 1047.36426,846.602579 1047.36426,830.730508 L1047.36426,460.329947 C1018.56561,463.757972 927.929063,480.341009 858.620023,557.235066 C843.450266,574.236989 840.660392,581.053146 837.681666,590.1689 C770.467177,754.906462 612.24988,861 434.155807,861 Z M434.911947,105 C255.919644,105 108.404389,251.110349 106,430.657888 C108.349391,609.905089 255.919644,756 434.911947,756 C614.622041,756 762.722529,609.961227 765,430.415091 C762.722529,251.110349 614.565633,105 434.911947,105 Z" id="mark" fill="url(#linearGradient-1)" fill-rule="nonzero"></path>
    </g>
</svg>

<svg xmlns="http://www.w3.org/2000/svg" width="1148" height="861"><title>mark</title><desc>Created with Sketch.</desc><defs><linearGradient id="a" x1="0%" y1="50%" y2="50%"><stop stop-color="#7F7CBB" offset="0%"/><stop stop-color="#7FCEEA" offset="47.13%"/><stop stop-color="#89CDA8" offset="100%"/></linearGradient></defs><g fill="none"><path fill="url(#a)" fill-rule="nonzero" d="M434.16 861C197.78 861 8.86 677.84.16 442.55H0v-17.58C5.42 186.4 195.57 0 434.16 0c178.1 0 336.38 105.98 403.3 270 3.2 9.95 6.06 16.82 21.16 33.65 69.25 77.07 159.95 93.6 188.75 96.96V30.34c0-16 13.98-29.26 30.5-29.26h33.02l35.27 43.9 1.83 388.88V810.7l-37.1 49.4h-33.02c-16.54 0-30.52-13.5-30.52-29.37v-370.4c-28.8 3.43-119.43 20-188.74 96.9-15.17 17-17.96 23.82-20.94 32.94C770.48 754.9 612.25 861 434.16 861zm.75-756C255.93 105 108.4 251.1 106 430.66 108.35 609.9 255.92 756 434.9 756c179.72 0 327.82-146.04 330.1-325.58C762.72 251.12 614.57 105 434.9 105z"/></g></svg>
